X:562
T: DAS LAUB FAELLT VON DEN BAEUMEN
N: F1116
O: Europa, Mitteleuropa, Deutschland
R: Natur -, Jahreszeiten - Lied, Herbst
M: 6/8
L: 1/16
K: F
C2 | A4A2A2B2c2 | c4B2z4
B2 | A4f2f2c2A2 | G6z4
C2 | G2G2^G2A4A2 | c4B2z4
B2 | A4A2B4c2 | d4e2f2z2
d2 | c2A2F2G3AG2 | F4z6

